app/img/icons/phone.svg

<svg width="12" height="12" viewBox="0 0 12 12" fill="none" xmlns="http://www.w3.org/2000/svg">
<path fill-rule="evenodd" clip-rule="evenodd" d="M11.9996 8.9843V10.7908C12.001 11.1299 11.8591 11.4539 11.6087 11.6831C11.3583 11.9124 11.0227 12.0256 10.6843 11.9951C8.82768 11.7938 7.04426 11.1606 5.47734 10.1465C4.01953 9.22195 2.78356 7.98843 1.85721 6.53351C0.83752 4.96259 0.202949 3.17405 0.00490154 1.31277C-0.0255841 0.976085 0.0871221 0.642115 0.315489 0.39244C0.543855 0.142765 0.866853 0.00037756 1.20558 5.92038e-05H3.01565C3.62134 -0.00589024 4.13759 0.437209 4.22236 1.03578C4.29876 1.61389 4.44044 2.18152 4.64471 2.72785C4.81047 3.16795 4.70445 3.66409 4.3732 3.99841L3.60694 4.76315C4.46585 6.27069 5.71655 7.51891 7.22708 8.37612L7.99334 7.61137C8.32832 7.28078 8.82544 7.17497 9.26642 7.3404C9.81383 7.54426 10.3826 7.68567 10.9619 7.76191C11.5686 7.84734 12.0148 8.37298 11.9996 8.9843Z" fill="#FA4616"/>
</svg>

<svg width="12" height="12" fill="none" xmlns="http://www.w3.org/2000/svg"><path fill-rule="evenodd" clip-rule="evenodd" d="M12 8.984v1.807a1.203 1.203 0 01-1.316 1.204 11.955 11.955 0 01-5.207-1.848 11.754 11.754 0 01-3.62-3.613A11.902 11.902 0 01.005 1.313 1.203 1.203 0 011.205 0h1.81a1.206 1.206 0 011.207 1.036 7.72 7.72 0 00.423 1.692c.165.44.06.936-.272 1.27l-.766.765a9.644 9.644 0 003.62 3.613l.766-.765c.335-.33.832-.436 1.273-.27a7.76 7.76 0 001.696.42A1.205 1.205 0 0112 8.985z" fill="#FA4616"/></svg>
